X:369
T:Bonny Green Garters - Bampton
S:OY A4 (BC)as required
N:Tune as played for Grand Union Morris
N:www.grandunionmorris.co.uk
M:6/8
L:1/8
Q:80
K:D
"A"A | dcd AFA | BAB ABc | dcd efg | faf ede | dcd AFA | BAB ABc | dcd e
fg | f3 d2 ||
"B"
K:G
d | dcB AGF | GAB cde | ded dcB |[1  B3 A2 |[2  A3 G2 ||
"C"d | dcB AGF | G3 A2 d | dcB AGF | G3 A2 d | dcB AGF | GAB cde | ded d
cB |  A3 G2 ||
